icon-themes/breeze_svg/cmd/sc_flowchartshapes.flowchart-summing-junction.svg

<svg viewBox="0 0 16 16" xmlns="http://www.w3.org/2000/svg">/&gt;<path d="m8 2.0039062c-1.2157875.0002813-2.4314947.3726198-3.46875 1.1132813l3.46875 3.46875 3.46875-3.46875c-1.038093-.7417865-2.2529625-1.1135625-3.46875-1.1132813zm-4.8828125 2.5273438c-1.4813478 2.0744971-1.4836492 4.8613529 0 6.9375l3.46875-3.46875zm9.7656245 0-3.4687495 3.46875 3.4687495 3.46875c1.481348-2.0744971 1.483596-4.8612779 0-6.9375zm-4.882812 4.8828125-3.46875 3.4687495c2.0761331 1.483648 4.8629888 1.481398 6.9375 0z" fill="#4d4d4d"/></svg>

<svg xmlns="http://www.w3.org/2000/svg" viewBox="0 0 16 16">
     />
 <path 
     style="fill:#4d4d4d" 
     d="M 8 2.0039062 C 6.7842125 2.0041875 5.5685053 2.376526 4.53125 3.1171875 L 8 6.5859375 L 11.46875 3.1171875 C 10.430657 2.375401 9.2157875 2.003625 8 2.0039062 z M 3.1171875 4.53125 C 1.6358397 6.6057471 1.6335383 9.3926029 3.1171875 11.46875 L 6.5859375 8 L 3.1171875 4.53125 z M 12.882812 4.53125 L 9.4140625 8 L 12.882812 11.46875 C 14.36416 9.3942529 14.366408 6.6074721 12.882812 4.53125 z M 8 9.4140625 L 4.53125 12.882812 C 6.6073831 14.36646 9.3942388 14.36421 11.46875 12.882812 L 8 9.4140625 z "
     />
 </svg>
